X: 1
T: Top of Cork Road
M: 6/8
Z: 2012 John Chambers <jc:trillian.mit.edu>
R: jig
L: 1/8
K: D
f/e/ |\
"D"dAF DFA | "G"Bed "A7"cBA | "D"dcd "A7"efg | "D"fdf "A7"ec[eA] |
"D"dAF DFA | "G"Bed "A7"cBA | "D"dcd "A7"efg | "(D)"fdd "D"d2 :|
|: g |\
"D"fdf fga | "A7"ecd efg | "Bm"dcd fed | "F#m"cAA A2c |
"G"BGB Bcd | "D"AFA ABc | "(G)"dcd "A7"efg | "(D)"fdd "D"d2 :|
